X:1
T:Sonata for Viola da Gamba and Harpsichord (No.3) G minor
T:Sonata per a viola de gamba i clavecí núm. 3 en sol menor 
T:J. S. Bach
T:Public Domain
T:Public Domain
T:Public Domain
T:Public Domain
T:Public Domain
T:Public Domain
T:Public Domain
T:Public Domain
T:Public Domain
T:Public Domain
T:Public Domain
T:Public Domain
T:Public Domain
T:Public Domain
T:Public Domain
T:Public Domain
T:Public Domain
C:Bach, Johann Sebastian
Z:Public Domain
%%score ( 1 2 3 ) { ( 4 6 ) | 5 }
L:1/8
Q:1/4=172
M:4/4
K:Bb
V:1 alto nm="Viola" snm="Vla."
V:2 alto 
V:3 alto 
V:4 treble nm="Clavicèmbal" snm="Clv."
V:6 treble 
V:5 bass 
V:1
"^Vivace" D | DG/^F/ GD/C/ DB,/A,/ B,G,/^F,/ | G,B,DG A/G/^F/=E/ DA | B/c/B/A/ G/=F/_E/D/ CEGB | %4
 A/B/A/G/ F/E/D/C/ B,D^FA | G/A/G/=F/ E/D/C/B,/ A,/B,/C/D/ E/C/A,/C/ | %6
 ^F,/G,/A,/B,/ C/A,/F,/A,/ D,/=E,/F,/G,/ A,/B,/C/A,/ | D/^F,/G,- G,/D/B,/G,/ E/F,/G,- G,/E/C/A,/ | %8
 D/^F,/G,/B,/ E/F,/G,/C/ DG,D,F, | G,[K:bass]G,/^F,/ G,D,/C,/ D,B,,/A,,/ B,,G,,/^F,,/ | %10
 G,,B,,D,G, A,/G,/^F,/=E,/ D,[K:alto]D | (D8 | D/)C/D/A,/ (B,/A,/B,/)G/ ^F/G/TG/F/4G/4 A/G/F/=E/ | %13
 DG/A/ B2- B/A/G/A/ BC- | CF/G/ A2- A/G/F/G/ A(B, | =B,)E/F/ G2- GA/B/ (c2 | %16
 c)^F/G/ A2- AD/=E/ F/G/A/F/ | G(D/^F,/) G,2- G,(E/G,/) G,2 | G,(D/^F,/) G,(E/F,/) G,2 z A | %19
 BG=EC G,=E,C,B | AFDB,[K:bass] F,D,B,,[K:alto]A | G=E^CA,[K:bass] =E,^C,A,,[K:alto]G | %22
 F/^C/D- D/A/F/D/ B/C/D- D/B/G/=E/ | A/^C/D/F/ B/C/D/G/ ADA,D | %24
 D/A,/B,/G,/ A,/D/B,/G,/ A,/=E,/F,/^C,/ D,/A,/F,/D,/ | B,/A,/G,/F,/ =E,>D, D,2 z D/_E/ | %26
 F/A,/B,- B,/F/D/B,/ G/A,/B,- B,/G/E/C/ | F/A,/B,/D/ G/A,/B,/G/ FE/D/ C/D/C/B,/ | %28
 A,(C/=E,/) F,2- F,(D/E,/) (F,2 | F,)(C/=E,/) F,(D/E,/) F, F2 =E | %30
 F/(F/4G/4A/)(F/4G/4 A/)F/D/F/ B,/(=E/4F/4G/)(E/4F/4 G/)E/^C/E/ | %31
 A,/(D/4=E/4F/)(D/4E/4 F/)D/B,/D/ G,/(^C/4D/4E/)(C/4D/4 E/)C/A,/C/ | %32
 F,A, D2- D/(=E/4D/4^C/)D/ (E2 | E/)(F/4=E/4D/)E/ F2- F/(G/4F/4E/)F/ G2- | %34
 G/(=E/4F/4G/)(E/4F/4 G/)E/A- A>B TE>D | DD/^C/ DA,/G,/ A,F,/=E,/ F,D,/^C,/ | %36
 D,F,A,D =E/D/^C/=B,/ A,_E/D/ | E=C/_B,/ CA,/G,/ A,^F,/=E,/ F,D,/C,/ | D,^F,A,C (C/B,/A,/B,/) G,d | %39
 (Td8 | d)G/A/ =B/c/d/B/ c2 z/ C/E/G/ | (_A/B/A/G/) F/E/D/C/ B,DFA | (G/_A/G/F/) E/D/C/B,/ _A,CEG | %43
 (F/G/F/E/) D/C/=B,/=A,/ G,B,DG | (G8 | G/)F/G/D/ (E/D/E/)C/ =B,/C/TC/B,/4C/4 D/C/B,/A,/ | %46
 C[K:bass]C/=B,/ CG,/F,/ G,E,/D,/ E,C,/=B,,/ | C,E,G,C D/C/=B,/A,/ G,/[K:alto]D/E/F/ | %48
 G4- G/(C/=B,/C/) (F2 | F/)(=B,/A,/B,/) E2- E/(_A,/G,/F,/) (D2 | %50
 D/)(C/4D/4E/)(C/4D/4 E/)C/G,/_B,/ _A,/(D/4E/4F/)(D/4E/4 F/)D/=A,/C/ | %51
 =B,/(E/4F/4G/)(E/4F/4 G/)E/B,/D/ C/(F/4G/4_A/)(F/4G/4 A/)F/C/E/ | %52
 D/(=B,/4C/4D/)(B,/4C/4 D/)B,/G,/B,/ C/B,/C/_A/ TB,>C | %53
 C(D/4E/4F/) E(D/4E/4F/) EG,/E/ _A,/F/B,/G/ | _A(C/4D/4E/) D(C/4D/4E/) DF,/D/ G,/E/_A,/F/ | %55
 GB,/4C/4_D/ C(B,/4C/4D/) CC/_A/ =D/A/G/E/ | (F/E/D/)E/ F2- F/E/F/G/ _A/B/G/A/ | %57
 B/D/E- E/B/G/E/ c/D/E- E/c/_A/F/ | B/D/E/G/ c/D/E/c/ BEB,TD | %59
 (E,/G,/B,/)D,/ (E,/G,/B,/)D,/ (E,/G,/B,/)E,/ E2 | E/_D/C/B,/ C/=D/D- D/_A,/C/F,/ (D2 | %61
 D/)C/B,/_A,/ G,/A,/B,- B,/E,/G,/C,/ (C2 | %62
 C/)B,/_A,/G,/[K:bass] F,/E,/D,/C,/ D,/B,/E,/B,/ F,/B,/D,/B,/ | %63
 E,/B,/F,/B,/ G,/B,/E,/B,/ F,/B,/G,/B,/ _A,/B,/F,/B,/ | G,[K:alto]B (B6 | %65
 B/)_A/B/F/ (G/F/G/).E/ (D/E/)(TE/_D/4E/4) .F/(G/4F/4=E/F/) | (G8 | %67
 G)C/D/ =E/F/G/E/{E} F2 z _A/G/ | _AF/E/ FD/C/ D=B,/=A,/ B,G,/F,/ | G,=B,DF (F/E/)(D/E/) C/E/D/F/ | %70
 Ec=AF CA,F,E | DBGE B,G,E,D | CA^FD A,^F,D,D | DG/^F/ GD/C/ DB,/A,/ B,G,/^F,/ | %74
 G,B,DG A/G/^F/=E/ D/_E/D/C/ | .B,(A,/4B,/4C/) .B,(A,/4B,/4C/) .B,D,/=B,/ E,/C/F,/D/ | %76
 .E(G,/4A,/4B,/) .A,(G,/4A,/4B,/) A,C,/A,/ D,/B,/E,/C/ | %77
 .D(F,/4G,/4_A,/) .G,(F,/4G,/4A,/) G,G,/E/ =A,/E/D/B,/ | %78
 (C/B,/A,/).B,/ C2- C/B,/A,/B,/ C/B,/C/A,/ | %79
 (B,/A,/G,/).^F,/ G,/B,/D/G,/ (G,/=E,/D,/).E,/ F,/G,/A,/G,/ | G,(D/^F,/) G,2- G,(E/F,/) G,2- | %81
 G,(D/^F,/) G,(E/F,/) G, G2 (=F | F/)(D/4=E/4F/)(D/4E/4 F/)D/G,/F/ E2 z (_E | %83
 E/)(C/4D/4E/)(C/4D/4 E/)C/F,/E/ DF, B,2- | B,/(C/4B,/4A,/B,/) C2- C/(D/4C/4B,/C/) D2- | %85
 D/(E/4D/4C/D/) E2- E/(C/4D/4E/)(C/4D/4 E/)C/F- | F>G TC>B, (B,/D/)(D/G/) (G/B/)(B/=E/) | %87
 =E/C/F/A,/ G,/F/G,/E/ F/(F/4G/4_A/)(F/4G/4 A/)(F,/4G,/4_A,/)(F,/4G,/4 | %88
 _A,) z z2 z/ (E/4F/4G/)(E/4F/4 G/)E/C/E/ | %89
 _A,/(D/4E/4F/)(D/4E/4 F/)D/=B,/D/ G,/(C/4D/4E/)(C/4D/4 E/)C/A,/C/ | %90
 F,/(=B,/4C/4D/)(B,/4C/4 D/)B,/G,/B,/ CC, z2 | %91
 z/ (_B,/4C/4D/)(B,/4C/4 D/)B,/G,/B,/ =E,^F,/G,/ (A,2 | %92
 A,/)(G,/4A,/4B,/)(G,/4A,/4 B,/)G,/D,/F,/ =E,/(A,/4B,/4C/)(A,/4B,/4 C/)A,/E,/G,/ | %93
 ^F,/(B,/4C/4D/)(B,/4C/4 D/)B,/F,/A,/ G,/(C/4D/4E/)(C/4D/4 E/)C/G,/B,/ | %94
 A,/(^F,/4G,/4A,/)(F,/4G,/4 A,/)F,/D,/F,/ (G,/F,/G,/)E/ TA,>G, | %95
 G,[K:bass]G,/^F,/ G,D,/C,/ D,B,,/A,,/ B,,G,,/^F,,/ | %96
 G,,B,,D,G, A,/G,/^F,/=E,/ (D,/_E,/)(E,/D,/4E,/4) | F,[K:alto]F/E/ FD/C/ D=B,/A,/ B,G,/F,/ | %98
 G,=B,DF (F/E/D/).E/ (C/E/)(D/F/) | (=E/G/)B,/-A,/ B,/G/B,/G/ B,/G/A,/-G,/ A,/G/^C/G/ | %100
 =E/G/A,/G/ ^C/G/E/G/ A,A- A/B/=c/D/ | _EC/B,/ CA,/G,/ A,^F,/=E,/ F,D,/C,/ | %102
 D,^F,A,C (C/B,/A,/)B,/ G,T^F | G/D/G/A/ B2- B/A/G/A/ BC- | CF/G/ _A2- A/G/F/G/ A(B, | %105
 B,)E/F/ (G2 G)=A/B/ c2 | c^F/G/ (A2 A)D/=E/ F/G/A/F/ | G(D/^F,/) (G,2 G,)E/F,/ (G,2 | %108
 G,)D/^F,/ G,(E/F,/) G,>E TF,>G, | %109
 G,/[K:bass]D,/E,/C,/ D,/G,/E,/C,/ D,/A,,/B,,/^F,,/ G,,/D,/B,,/G,,/ | (E,/C,/).G, D,,T^F, G,3 |] %111
[M:6/4][K:alto][Q:1/4=71]"^Adagio" (F12 | F/)G/-F/E/ F>G (A,/G,/F,) (C/B,/A,) E4- | %113
 E4- E(CEF AB) (c2 | c)(B/A/ B/A/G){G} F4- F/(G/A/B/ c/d/A) | B12 | %116
 B(G=EC) (B,A,B,G,) (=E,C,E,G,) | B,4- B,(G,B,C =EF G2- | G)(F/=E/ F/E/D) (C/F/E/D/ CB,) A,F, A2- | %119
 A(G/F/G)A D4- D/(C/B,/A,/) B,2 | B,(=E/F/) G2- G(F/E/F)_A (B/G/F/E/ F)A | _d3 B (_A4 TGF G2) |1 %122
 F12 :|2 F12 |: z4 =B4 (D2 =E2) | =B,4 (F8 | F2) _A,2 (G,>=A, =B,/C/D/E/) (F/G/ _A2 G) | %127
{F} TE6 D2 C4 | z12 | C2 (ED) E4- E/(D/C/D/ =E/^F/G/A/ | Bc/B/ A/B/c){G} T^F6 G2 | G12 | %132
 z4 (G2 A2) (!turn!A2 B2) |{F} =E12 | E(GBA GF=ED) (CB,A,).B, |{B,} TA,6 G,2 F,4 | z4 F8- | %137
 F(_AGF EDC=B, =A,G,A,B,) | (CDCD) (TD3 C/)D/ (EDCD/E/) | %139
 TA,2 (G,F,) F,3 (G,/A,/ B,/C/B,/A,/) (B,2 | B,3) G (D/>E/D/C/ B,/C/B,/C/) C3- B,/C/ |1 B,12 :|2 %142
 !fermata!B,12 |][M:6/8][Q:1/4=144]"^Allegro" z6 | z6 | z G,G, G,G,G, | D,DD =EE/F/G/E/ | %147
 F/=E/D/G/E/G/ (G/G/4A/4)D/_E/D/C/ | B,/A,/B,/G,/G- G T^F2 | G2 z z G=B, | C2 z z FA, | %151
 B,2 z z EG, | A,CE, (F,3 | F,)F,F, F,F,F, | B,,B,B, CC/D/E/C/ | D/C/B,/D/C/E/ D/C/B,/D/C/B,/ | %156
 A,/G,/A,/F,/(F F) T=E2 | (3(F/_E/D/) (3(E/D/C/) (3(D/C/B,/) (3(E/D/C/) (3(D/C/B,/) (3(C/B,/A,/) | %158
 B,>A,G,/F,/ E,/D,/E,/F,/G,/E,/ | F, B,2 (3(A,/G,/F,/) (3(G,/F,/E,/) (3(F,/E,/D,/) | %160
 E,>F,D,- D,/E,<C,B,,/ | B,,3 z"_Cantabile" B,_A, | G,3- G,B,/=A,/B,/C/ | F,3- F,B,{A,}G, | %164
({F,} (E,3 (E,2) E,/)D,/4E,/4) | D,[K:alto]DB, G,/F,/G,/A,/B,/G,/ | %166
 (A,/B,/C/A,/F,/A,/) (F,/A,/C/A,/F,/A,/) | (F,/B,/D/B,/F,/B,/) (F,/B,/D/B,/F,/B,/) | %168
 (F,/B,/C/B,/F,/B,/) (F,/A,/C/A,/F,/A,/) | (D,/G,/B,/G,/D,/G,/) (=E,/G,/B,/G,/E,/G,/) | %170
 (F,/A,/D/=E/)(F/D/) =B,(TB,3/2A,/4B,/4) | C_EC A,/G,/A,/_B,/C/A,/ | %172
 B,/D/=E/F/G/E/ ^C(TC3/2=B,/4C/4) | D2 =C =B,=ED | ^C>=ED/F/ E/D/ E2 | %175
 ED/=C/B,/A,/ G,/F,/G,/A,/B,/G,/ | A,2 z z FA, | B,2 z z BD | =E>^CD- D/E<TCD/ | %179
 (D/=E/F/D/^C/D/) (A,/D/F/D/=C/D/) | (=B,/D/F/D/C/D/) (B,/D/F/D/C/D/) | %181
 (G,/C/_E/C/=B,/C/) (G,/C/E/C/_B,/C/) | (A,/C/E/C/B,/C/) (A,/C/E/C/B,/C/) | %183
 (F,/B,/D/B,/A,/B,/) (F,/B,/D/B,/A,/B,/) | (G,/B,/_D/B,/A,/B,/) (G,/B,/D/B,/A,/B,/) | %185
 (G,/B,/C/B,/A,/B,/) (G,/B,/C/B,/A,/B,/) | [F,A,CF]2 z (C3 | C)ED C(D/C/B,/A,/) | %188
 (B,/A,/G,/B,/A,/C/) (B,3 | B,)DC B,(C/B,/A,/G,/) | (A,/G,/F,/A,/G,/B,/) (A,3 | %191
 A,/)G,/F,/_A,/G,/B,/ (A,3 | _A,/)(F,/=E,/F,/A,/F,/) .D/(F,/E,/F,/G,/F,/) | %193
 =E,/C,/F,/=A,/G,/B,/ (A,/G,/A,/C/B,/D/) | (C6 | C)FA, (B,3 | %196
 B,/)C,/=E,/G,/B,/D/ C/B,/(TA,G,/F,/) | F,/(D/C/B,/A,/G,/) F,/[K:bass](B,/A,/G,/F,/_E,/) | %198
 D,/(G,/F,/E,/D,/C,/) =B,,G,,B,, | C,G,G, G,G,G, | C,[K:alto]CC CD/C/B,/A,/ | %201
 B,/D/G/D/B,/D/[K:bass] G,/B,/D/B,/G,/B,/ | =E,/G,/B,/G,/E,/G,/ ^C,/E,/G,/E,/C,/E,/ | %203
 A,,2 z z[K:alto] FF | F=EE EEE | =EDD DDD |{D} ^C3- C/D<TDC/4D/4 | =EA,D- DG,(F | %208
 F/)(F/_E/D/C/D/) =E/^F<(TFE/4F/4) | G2- G/=E/ (=F/D<_E)^C/ | D>=B,^C/=E/ D/E<TCD/ | %211
 D2 z z"_Cantabile" (D=C) |{C} B,3- B,(D/^C/D/=E/) | (A,3 A,)D{=C}B, | %214
({A,} G,3- (G,2 G,/)^F,/4G,/4) | ^F,DG, C/(E/D/C/B,/A,/) | B,(DC){C} (B,3 | B,)(C/B,/A,/G,/) (A,3 | %218
 A,/)(C/B,/A,/G,/^F,/) G,3/2(A,/4B,/4C/D/) | EEE{E} (D3 | D/)C/D/=B,/C- C/D<TB,C/ | CG,G, G,G,G, | %222
 C,CC DD/E/F/D/ | E/G,/C/E/D/F/ E/D/C/E/D/C/ | B,/A,/B,/G,/G- G T^F2 | %225
 (3(G/=F/E/) (3(F/E/D/) (3(E/D/C/) (3(D/C/B,/) (3(C/B,/A,/) (3(B,/A,/F,/) | %226
 A,D/C/B,/A,/ G,/^F,/G,/A,/B,/G,/ | A,2 z z G=B, | C3- CFA, | B,3- B,EG, | %230
 _A,3- (A,/G,/^F,/G,/)(TG,/F,/4G,/4) | (=A,/G,/A,/B,/)(TB,/A,/4B,/4) (C/B,/C/A,/B,/C/) | %232
 D(C/B,/A,/G,/) (^F,/G,/) (E2 | E)(D/C/B,/A,/) G,/^F,/{F,} (G,2 | %234
 G,/)(D/C/B,/A,/G,/) (E/D/C/B,/A,/G,/) | .B,CA, A, z z | G,,G,G, A,A,/B,/C/A,/ | B,[K:alto]DD DDD | %238
 CCC CCC | B,B,B, B,B,B, | (A,/B,<)(TB,A,/4B,/4) (C3 | C/)(E/D/C/B,/C/) (D/=E<)(TED/4E/4) | (F6 | %243
 F/)D/_E/C/(D D>)=B,C | C/A,/_B,/G,/A,- A,>^F,(G, | G,/)^F,/G,C- C/B,/A,/G,/F,/=E,/ | %246
 (D,/G,/B,/G,/^F,/G,/) (_E,/G,/B,/G,/F,/G,/) | (D,/G,/B,/G,/^F,/G,/) (C,/G,/B,/G,/F,/G,/) | %248
 (D,/G,/B,/G,/^F,/G,/) (E,/G,/A,/G,/F,/G,/) | (D,/G,/A,/G,/^F,/G,/) (G,3 | %250
 G,/)G/B/G/^F/G/ D>(ED/C/) | (B,/A,/)(C/B,/A,/B,/) G,/B/d/B/G/B/ | D/G/B/G/D/G/ B,/D/G/D/B,/D/ | %253
 G,/B,/D,/G,/B,,/D,/ !fermata!G,,3 |] %254
V:2
 x | x8 | x8 | x8 | x8 | x8 | x8 | x8 | x8 | x[K:bass] x7 | x7[K:alto] x | x8 | x8 | x8 | x8 | x8 | %16
 x8 | x8 | x8 | x8 | x4[K:bass] x3[K:alto] x | x4[K:bass] x3[K:alto] x | x8 | x8 | x8 | x8 | x8 | %27
 x8 | x8 | x8 | x8 | x8 | x8 | x8 | x8 | x8 | x8 | x8 | x8 | x8 | x8 | x8 | x8 | x8 | x8 | x8 | %46
 x[K:bass] x7 | x13/2[K:alto] x3/2 | x8 | x8 | x8 | x8 | x8 | x8 | x8 | x8 | x8 | x8 | x8 | x8 | %60
 x8 | x8 | x2[K:bass] x6 | x8 | x[K:alto] x7 | x8 | x8 | x8 | x8 | x8 | x8 | x8 | x8 | x8 | x8 | %75
 x8 | x8 | x8 | x8 | x8 | x8 | x8 | x8 | x8 | x8 | x8 | x8 | x8 | x8 | x8 | x8 | x8 | x8 | x8 | %94
 x8 | x[K:bass] x7 | x8 | x[K:alto] x7 | x8 | x8 | x8 | x8 | x8 | x8 | x8 | x8 | x8 | x8 | x8 | %109
 x/[K:bass] x15/2 | x4 [G,,D,]3 |][M:6/4][K:alto] x12 | x12 | x12 | x12 | x12 | x12 | x12 | x12 | %119
 x12 | x12 | x12 |1 x12 :|2 x12 |: x12 | x12 | x12 | x12 | x12 | x12 | x12 | x12 | x12 | x12 | %134
 x12 | x12 | x12 | x12 | x12 | x12 | x12 |1 x12 :|2 x12 |][M:6/8] x6 | x6 | x6 | x6 | x6 | x6 | %149
 x6 | x6 | x6 | x6 | x6 | x6 | x6 | x6 | x6 | x6 | x6 | x6 | x6 | x6 | x6 | x6 | x[K:alto] x5 | %166
 x6 | x6 | x6 | x6 | x6 | x6 | x6 | x6 | x6 | x6 | x6 | x6 | x6 | x6 | x6 | x6 | x6 | x6 | x6 | %185
 x6 | x6 | x6 | x6 | x6 | x6 | x6 | x6 | x6 | x6 | x6 | x6 | x7/2[K:bass] x5/2 | x6 | x6 | %200
 x[K:alto] x5 | x3[K:bass] x3 | x6 | x4[K:alto] x2 | x6 | x6 | x6 | x6 | x6 | x6 | x6 | x6 | x6 | %213
 x6 | x6 | x6 | x6 | x6 | x6 | x6 | x6 | x6 | x6 | x6 | x6 | x6 | x6 | x6 | x6 | x6 | x6 | x6 | %232
 x6 | x6 | x6 | z D,D, D,D,D, | x6 | x[K:alto] x5 | x6 | x6 | x6 | x6 | x6 | x6 | x6 | x6 | x6 | %247
 x6 | x6 | x6 | x6 | x6 | x6 | x6 |] %254
V:3
 x | x8 | x8 | x8 | x8 | x8 | x8 | x8 | x8 | x[K:bass] x7 | x7[K:alto] x | x8 | x8 | x8 | x8 | x8 | %16
 x8 | x8 | x8 | x8 | x4[K:bass] x3[K:alto] x | x4[K:bass] x3[K:alto] x | x8 | x8 | x8 | x8 | x8 | %27
 x8 | x8 | x8 | x8 | x8 | x8 | x8 | x8 | x8 | x8 | x8 | x8 | x8 | x8 | x8 | x8 | x8 | x8 | x8 | %46
 x[K:bass] x7 | x13/2[K:alto] x3/2 | x8 | x8 | x8 | x8 | x8 | x8 | x8 | x8 | x8 | x8 | x8 | x8 | %60
 x8 | x8 | x2[K:bass] x6 | x8 | x[K:alto] x7 | x8 | x8 | x8 | x8 | x8 | x8 | x8 | x8 | x8 | x8 | %75
 x8 | x8 | x8 | x8 | x8 | x8 | x8 | x8 | x8 | x8 | x8 | x8 | x8 | x8 | x8 | x8 | x8 | x8 | x8 | %94
 x8 | x[K:bass] x7 | x8 | x[K:alto] x7 | x8 | x8 | x8 | x8 | x8 | x8 | x8 | x8 | x8 | x8 | x8 | %109
 x/[K:bass] x15/2 | x7 |][M:6/4][K:alto] x12 | x12 | x12 | x12 | x12 | x12 | x12 | x12 | x12 | %120
 x12 | x12 |1 x12 :|2 x12 |: x12 | x12 | x12 | x12 | x12 | x12 | x12 | x12 | x12 | x12 | x12 | %135
 x12 | x12 | x12 | x12 | x12 | x12 |1 x12 :|2 x12 |][M:6/8] x6 | x6 | x6 | x6 | x6 | x6 | x6 | x6 | %151
 x6 | x6 | x6 | x6 | x6 | x6 | x6 | x6 | x6 | x6 | x6 | x6 | x6 | x6 | x[K:alto] x5 | x6 | x6 | %168
 x6 | x6 | x6 | x6 | x6 | x6 | x6 | x6 | x6 | x6 | x6 | x6 | x6 | x6 | x6 | x6 | x6 | x6 | x6 | %187
 x6 | x6 | x6 | x6 | x6 | x6 | x6 | x6 | x6 | x6 | x7/2[K:bass] x5/2 | x6 | x6 | x[K:alto] x5 | %201
 x3[K:bass] x3 | x6 | x4[K:alto] x2 | x6 | x6 | x6 | x6 | x6 | x6 | x6 | x6 | x6 | x6 | x6 | x6 | %216
 x6 | x6 | x6 | x6 | x6 | x6 | x6 | x6 | x6 | x6 | x6 | x6 | x6 | x6 | x6 | x6 | x6 | x6 | x6 | %235
 z A, x4 | x6 | x[K:alto] x5 | x6 | x6 | x6 | x6 | x6 | x6 | x6 | x6 | x6 | x6 | x6 | x6 | x6 | %251
 x6 | x6 | x6 |] %254
V:4
 z | z8 | z8 | z8 | z8 | z8 | z8 | z8 | z4 z2 z d | (Td8 | %10
 d/)c/d/A/ B/A/B/g/ ^f/g/Tg/f/4g/4 a/g/f/=e/ | dg/^f/ gd/c/ dB/A/ BG/^F/ | GBdg a/g/^f/=e/ da | %13
 b/c'/b/a/ g/=f/_e/d/ cegb | a/b/a/g/ f/e/d/c/ Bdfa | g/a/g/f/ e/d/c/B/ A/B/c/d/ e/c/A/c/ | %16
 ^F/G/A/B/ c/A/F/A/ D/=E/F/G/ A/B/c/A/ | d/^F/G- G/d/B/G/ e/F/(G G/)e/c/A/ | %18
 d/^F/G/B/ e/F/G/c/ dGD!turn!F | (G/B/d/)A/ (B/=e/g/)A/ (B/e/g/)A/ B/(e/d/e/) | %20
 F/A/c/G/ (A/d/f/)G/ (A/d/f/)G/ A/(d/^c/d/) | (=E/G/B/)F/ (G/^c/=e/)F/ (G/c/e/)F/ G/(c/=B/c/) | %22
 D(a/^c/) d2- d(b/c/) d2- | d(a/^c/) d(b/c/) Md>=e Me>d | d/^c/Md- d>c d/c/ Md3- | %25
 d/^c/d/=e/ !turn!c>d d2 z2 | z8 | z4 z2 z a/b/ | c'/=e/f- f/c'/a/f/ d'/e/f- f/d'/b/g/ | %29
 c'/=e/f/a/ d'/e/f/d'/ c'b/a/ g/a/b/g/ | acfa- a/(d/^c/d/) (g2 | g/)(^c/=B/c/) (f2 f)g/f/ (=e2 | %32
 =e/)d/4e/4f/d/4e/4 f/d/A/c/ B/e/4f/4g/e/4f/4 g/e/=B/d/ | %33
 ^c/f/4g/4a/f/4g/4 a/f/c/=e/ d/g/4a/4b/g/4a/4 b/g/d/f/ | %34
 =e/^c/4d/4e/c/4d/4 e/c/A/c/ (d/c/d/)b/ c>d | dd/^c/ dA/G/ AF/=E/ FD/^C/ | DFAd =e/d/^c/=B/ Aa | %37
 (Ta8 | a)d/=e/ ^f/g/a/f/ Mg2 z _a/g/ | gf/e/ fd/c/ d=B/=A/ BG/F/ | G=Bdf f/e/d/e/ (c2 | %41
 c)f/g/ _a2- a/g/f/g/ a(B | B)e/f/ g2- g/f/e/f/ g(_A | _A)d/e/ f2- f/e/d/e/ f/_a/g/f/ | %44
 e/d/c/=B/ cG/F/ GE/D/ EC/=B,/ | CEGc d/c/=B/=A/ Gg | g8 | %47
 g/f/g/d/ e/d/e/c'/ =b/c'/c'/b/4c'/4 d'/c'/b/a/ | %48
 g/e/4f/4g/e/4f/4 g/e/c/e/ _A/d/4e/4f/d/4e/4 f/d/=B/d/ | %49
 G/c/4d/4e/c/4d/4 e/c/_A/c/ F/=B/4c/4d/B/4c/4 d/B/G/F/ | EG (Mc2 c/)d/4c/4=B/c/{c} d2 | %51
 d/e/4d/4c/d/{d} e2- e/f/4e/4d/e/{e} (f2 | f/)d/4e/4f/d/4e/4 f/d/Mg- g>_a Md>c | %53
 (c/e/g/)=B/ (c/e/g/)B/ (c/e/g/)c/ c'2 | c'/b/_a/g/ f/g/{g}a- a/d/f/B/ b2 | %55
 b/_a/g/f/ e/f/{f}g- g/c/e/_A/ a/d/e/c/ | d/e/f/g/ _a/f/d/f/ B/c/d/e/ f/d/B/d/ | %57
 eb/d/{d} (e2 e)c'/d/{d} (e2 | e)b/d/{d} ec'/d/ e/_a/g/f/ Mf>e | %59
 e(f/4g/4_a/) g(f/4g/4a/) g(B/g/) (c/a/)(_d/b/) | %60
{b} c'(e/4f/4g/) f(e/4f/4g/) f(_A/f/) (B/g/)(c/_a/) | %61
{_a} b(d/4e/4f/) e(d/4e/4f/) e(G/e/) (_A/f/)(B/g/) | _a/g/f/g/ a2 a/g/f/g/ a/g/a/f/ | %63
 g/f/e/d/ e/g/b/e/ d/c/B/c/ d/e/f/d/ | eB BG/F/ GE/D/ EG/F/ | G/B/e/d/ Me>g f/e/d/c/ B_d'/c'/ | %66
 _d'b/_a/ bg/f/ g=e/=d/ ec/B/ | c=egb b/_a/g/a/ f/c'/=b/c'/ | (d'8 | %69
 d')g/a/ =b/c'/d'/b/ c'2 z/ c/=B/d/ | c/e/g/d/ e/=a/c'/d/ e/a/c'/d/ =e/a/g/a/ | %71
 B/d/f/c/ d/g/b/c/ d/g/b/c/ d/g/^f/g/ | A/c/e/B/ c/^f/a/B/ c/f/a/B/ c/f/=e/f/ | %73
 G/B/d/^f/ gd/c/ dB/A/ BG/^F/ | GBdg a/g/^f/=e/ d/c/B/A/ | (G/B/d/)^F/ (G/B/d/)F/ (G/B/d/)G/ g2- | %76
 g/=f/e/d/ c/d/e- e/A/c/F/ f2- | f/e/d/c/ B/c/d- d/G/B/E/ e/A/B/G/ | %78
 e/d/c/B/ A/G/^F/=E/ F/d/G/d/ A/d/F/d/ | G/d/A/d/ B/d/G/d/ A/d/B/d/ c/d/A/d/ | %80
 B/^F/G- G/d/B/G/ e/F/G- G/e/c/A/ | d/^F/G/B/ e/F/G/c/ d>e PA>G | %82
 G2 z _b- b/g/4a/4b/g/4a/4 b/g/c/b/ |{b} a2 z _a- a/f/4g/4a/f/4g/4 a/f/B/a/ | %84
 g/c/4d/4e/c/4d/4 e/c/G/B/ A/d/4e/4f/d/4e/4 f/d/A/c/ | %85
 B/e/4f/4g/e/4f/4 g/e/B/d/ c/A/4B/4c/A/4B/4 c/A/F/A/ | %86
 B/A/B/g/ TA>B B/g/4a/4b/g/4a/4 b/G/4A/4B/G/4A/4 | B z z2 z/ c/(c/f/) (f/_a/)(a/d/) | %88
 d/B/e/G/ F/e/F/d/ eB e2 | e/A/=B/c/ d2- d/G/A/B/ (c2 | %90
 c/)f/g/_a/ T=B2 z/ c/4d/4e/c/4d/4 e/c/=A/c/ | ^F z z2 z/ A/4B/4c/A/4B/4 c/A/F/A/ | %92
 Bd Mg2- g/a/4g/4^f/g/ Ma2- | a/b/4a/4g/a/ Mb2- b/c'/4b/4a/b/ Mc'2- | %94
 c'/a/4b/4c'/a/4b/4 c'/a/d'- d'/a/b/g/ ^f>g | gg/^f/ gd/c/ dB/A/ BG/^F/ | GBdg a/g/^f/=e/ (d2 | %97
 d)_A/-G/ A/f/A/f/ A/f/G/-F/ G/f/=B/f/ | d/f/G/f/ =B/f/d/f/ G/g/f/g/ e/c/g/_B/ | %99
 Ag/f/ g=e/d/ e^c/=B/ cA/G/ | A^c=eg g/^f/e/f/ da | (a8 | (a4) a)d g/b/a/c'/ | %103
 b/c'/b/a/ g/f/e/d/ cegb | a/b/a/g/ f/e/d/c/ Bdf_a | g/_a/g/f/ e/d/c/B/ =A/B/c/d/ e/c/A/c/ | %106
 ^F/G/A/B/ c/A/F/A/ D/=E/F/G/ A/B/c/A/ | d/^F/G- G/d/B/G/ e/F/(G G/)e/c/A/ | %108
 d/^F/G/B/ e/F/G/c/ d/^f/g/a/ Pa>g | g/^f/g- g>f g/f/{f} (g3 | g/)e/d/c/ PBA/G/ [B,DG]3 |] %111
[M:6/4] z4 (B4 Mc2) d2 |{B} A4 e4{d} c4 |{B} A2 GF (F4 ED E2) | TD6 C2 B,4 | d4{c} B4{A} G4 | %116
{F} (=E2 C2) (G2 E2) (B2 G2) | (=ef/g/ f/ed/4c/4) (c4 TBA B2) |{B} TA6 B2{B} c4 | %119
 (D4 G2) (BA B2 G2) |{F} =E2 DC (_A8 | A/)G/F/=E/ F3/2_d/4c/4 F2- F/E/=D/E/ TE3 F |1 F12 :|2 F12 |: %124
 (Mf12 | f)(_AGF) (G=Bde fdfg | _af=bc'){c'} (d'8 | d')c'=bd' c'_agf edc_B | %128
 A2 cB{B} Mc4- c/(=B/A/B/ c/d/=e/^f/) | (g2 ^f4) ag{g} (a4 | a)g c'2{b} Ma6 g2 | g12 | z8 x4 | %133
 z4 (B2 c2) (!turn!c2 d2) | G2 g2{f} M=e6 f2 | (fc_ed) (cBAB cAGF) | (BcBc) Tc3- B/c/ (dcBc/d/) | %137
 (G12 | (G4) G)FED CB,A,G, | F,Fce (_d8 | d/)(c/B/A/ B/_G/F/=E/) (F3 =G/A/) TA3- G/A/ |1 B8 z4 :|2 %142
 !fermata!B12 |][M:6/8] z dd ddd | Ggg aa/b/c'/a/ | b/d/g/b/a/c'/ b/a/g/b/a/g/ | %146
 f/=e/f/d/(d' d') P^c'2 | (3(d'/=c'/b/) (3(c'/b/a/) (3(b/a/g/) (3(c'/b/a/) (3(b/a/g/) (3(a/g/^f/) | %148
 g>=fe/d/ c/B/c/d/e/c/ | dd'^f{f} g2 z | z c'=e{e} f2 z | z bd egB | (Me3 e/)(f/e/d/c/B/) | %153
 A/(d/c/B/A/G/) F/(B/A/G/F/E/) | D/C/D/B,/B- B TA2 | BBB BBB | Fff gg/a/b/g/ | %157
 a/g/f/a/g/b/ a/g/f/g/f/e/ | d/c/d/B/b- b Ta2 | %159
 (3(b/_a/g/) (3(a/g/f/) (3(g/f/e/) (3(f/e/d/) (3(e/d/c/) (3(d/c/B/) |{B} Mc>dB- B/c<TAB/ | %161
 (B/d/f/d/B/d/) (B/d/f/d/B/d/) | (B/e/g/e/B/e/) (B/e/g/e/B/e/) | (B/e/f/e/B/e/) (B/d/f/d/B/d/) | %164
 (G/c/e/c/G/c/) (A/c/e/c/A/c/) | B/d/g/a/b/g/ =ePe3/2d/4e/4 | f2 z z"_Cantabile" (f_e) | %167
{e} (d3 d)(f/=e/f/g/) |{d} c3- cf{=e}d |{c} TB3- B2 A/B/ | Aaf d/c/d/=e/f/d/ | %171
 =e/g/a/b/c'/a/ ^fTf3/2e/4f/4 | gbg =e/d/e/f/g/e/ | f (a2 a) (g2 | g/)f/=e/g/f/a/ g/f/g/b/a/g/ | %175
 f/=e/f/a/d'- d'^c'3/2=b/4c'/4 | d'a^c{c} (d3 | d)d'^f g3 | g/b/a/g/ f/4g/4a/4b/4 a/g/(fM=e/d/) | %179
 d2 z (f3 | f)_ag fg/f/e/d/ | (e/d/c/e/d/f/) (e3 | e)gf ef/e/d/c/ | (d/c/B/d/c/e/) (d3 | %184
 d/)(c/B/_d/c/=e/) (Md3 | d/)B/A/B/_d/B/ g/B/A/B/c/B/ | A/c/f/c/f/a/ f/a/c'/a/g/a/ | %187
 ^f/a/c'/a/g/a/ f/a/c'/a/g/a/ | d/g/b/g/^f/g/ d/g/b/g/=f/g/ | =e/g/b/g/f/g/ e/g/b/g/f/g/ | %190
 c/f/a/f/=e/f/ c/f/a/f/e/f/ | d/f/_a/f/=e/f/ d/f/a/f/e/f/ | d/f/g/f/=e/f/ d/f/g/f/e/f/ | %193
 c z z z/ c/f/a/g/b/ | (3(b/a/g/) (3(a/g/f/) (3(g/f/=e/) fac | d3- d/B/d/f/b/f/ | g>=ef- f/g<Mef/ | %197
 fcc ccc | Fff fg/f/e/d/ | e/g/c'/g/e/g/ c/e/g/e/c/e/ | A/c/e/c/A/c/ ^F/A/c/A/F/A/ | Ddd ddd | %202
 Ggg ga/g/f/=e/ | faa aaa | ggg ggg | fff fff | =e/f<Mfe/4f/4 g3- | g/b/a/g/f/g/ a/=b<Tba/4b/4 | %208
 c'6- | c'/a/_b/g/a- a>^fg- | g/=e/=f/d/e/g/ f/^g<Med/ | d"_Cantabile"ag{g} f3- | %212
 f(g/f/=e/d/){d} (e3 | e/)g/f/=e/d/^c/ d3/2e/4f/4g/a/ | bbb Ma3- | a/g/a/^f/g- g/a<Mfg/ | %216
 g2 z z g=f |{f} e3- eg/^f/g/a/ |{e} d3- dg{f}e |({_d} Tc3- c2 =B/c/) | =Bgc f/(_a/g/f/e/d/) | %221
 eg!turn!=B c2 z | z6 | z cc ccc | Ggg aa/b/c'/a/ | %225
 b/d/g/b/a/c'/ (3(b/a/g/) (3(a/g/^f/) (3(g/f/=e/) | ^f/=e/f/d/d'- d' c'2 | %227
 (3(c'/b/a/) (3(b/a/g/) (3(a/g/^f/) g3 | g"^[]"c'=e{e} (f3 | f)"^[]"bd{d} (e3 | %230
 e/)d/c/B/_A/G/ (c3 | c/)d/c/B/=A/G/ ^F/B/A/G/F/=E/ | D/G/B/G/^F/G/ _E/G/B/G/F/G/ | %233
 D/G/B/G/^F/G/ C/G/B/G/F/G/ | D/G/B/G/^F/G/ E/G/A/G/F/G/ | D/G/A/G/D/^F/ G/B/d/G/B/d/ | %236
 g/d/B/G/g- g M^f2 | g2 z z bb | baa aaa | agg ggg |{g} ^f3- f/g<Tgf/4g/4 | adg- gcb- | %242
 b/b/a/g/f/g/ a/=b<Tba/4b/4 | c'2- c'/_a/ _b/g<a^f/ | g2- g/=e/ =f/d<_e^c/ | d=c/B/A/G/ ^F d2- | %246
 d(c/B/A/G/ ^F/G/) e2- | e(d/c/B/A/ G/^F/) G2- | G/d/c/B/A/G/ e/d/c/B/A/G/ | %249
 BMc!turn!A G/g/b/g/^f/g/ | ^c2 (=c c/)e/d/c/B/A/ | GA!turn!^F G2 z | z/ B/d/B/G/B/ D/G/B/G/D/G/ | %253
 B,/D/G/D/B,/D/ !fermata!G,3 |] %254
V:5
 G,/A,/ | B,G, G,,G,/A,/ B,G, G,,G,/A,/ | B,/A,/G,/A,/ B,/A,/B,/G,/ DD,^F,D, | %3
 G,,B,,D,G, E,/F,/E,/D,/ C,/B,,/A,,/G,,/ | F,,A,,C,F, D,/E,/D,/C,/ B,,/A,,/G,,/=F,,/ | %5
 E,,G,,B,,E, C,C,C,C, | C,C,C,C, C,C,C,C, | B,,D,B,,G,, C,E,C,A,, | B,,G,,C,A,, B,,G,,D,D,, | %9
 G,,G,/^F,/ G,D,/C,/ D,B,,/A,,/ B,,G,,/^F,,/ | G,,B,,D,G, A,/G,/^F,/=E,/ D,A, | %11
 B,G, G,,G,/A,/ B,G,G,,A,, | B,,G,,F,,E,, D,,=E,,^F,,D,, | %13
 G,,B,,D,G, E,/F,/E,/D,/ C,/B,,/A,,/G,,/ | F,,A,,C,F, D,/E,/D,/C,/ B,,/A,,/G,,/F,,/ | %15
 E,,G,,B,,E, C,C,C,C, | C,C,C,C, C,C,C,C, | B,,D,B,,G,, C,E,C,A,, | B,,G,,C,A,, B,,C,D,D,, | %19
 G,,G,/^F,/ G,=E,/D,/ E,C,/B,,/ C,C,, | F,,F,/=E,/ F,D,/^C,/ D,B,,/A,,/ B,,B,,, | %21
 =E,,=E,/D,/ E,^C,/=B,,/ C,A,,/G,,/ A,,A,,, | D,,F,,/=E,,/ F,,D,, G,,G,,,G,,E,, | %23
 F,,D,,G,,=E,, F,,B,,/G,,/ A,,/^C,/=E,/G,/ | F,D,/=E,/ F,G, F,A,/G,/ F,D, | %25
 G,=E,A,A,, D,,D,/_E,/ D,=C, | B,,.D,/C,/ D,B,, E,G,/F,/ E,C, | D,B,,E,C, D,B,=E,C, | %28
 F,,A,,/G,,/ A,,F,, B,,B,,,B,,G,, | A,,F,,B,,G,, A,,B,,C,C,, | F,,2 z F, D,B,, z =E, | %31
 ^C,A,, z D, B,,G,,^C,,A,, | D,D,, z D, G,B,=E,G, | A,^CF,A, B,DG,B, | %34
 ^C,2 z G, F,/=E,/F,/G,/ A,A,, | D,A,, D,,D,/=E,/ F,D, D,,D,/E,/ | %36
 F,/G,/A,/G,/ F,/=E,/F,/D,/ ^C,/D,/E,/D,/ C,/=B,,/A,,/G,,/ | %37
 ^F,,_E,/D,/ E,/C,/^F,/=E,/ F,/D,/A,/G,/ A,/F,/A,/C/ | ^F,A,DD, G,,A,,B,,C, | %39
 =B,,_A,/G,/ A,/F,/=B,/=A,/ B,/G,/D/C/ D/B,/D/F/ | =B,DB,G, C,D,E,C, | %41
 F,,_A,,C,F, D,/E,/D,/C,/ B,,/A,,/G,,/F,,/ | E,,G,,B,,E, C,/D,/C,/B,,/ _A,,/G,,/F,,/E,,/ | %43
 D,,F,,_A,,D, =B,,/C,/B,,/=A,,/ G,,/F,,/E,,/D,,/ | C,,2 z/ F,/E,/D,/ E,/D,/C,/=B,,/ C,/G,,/E,/D,/ | %45
 E,C,_B,,_A,, G,,=A,,=B,,G,, | C,C,, z/ =B,,/C,/D,/ E,/C,/E,/G,/ C/G,/E,/G,/ | %47
 C,CB,_A, G,=A,=B,G, | E,C, z E, C,_A,, z D, | =B,,G,, x C, _A,,F,,=B,,,B,, | %50
 C,C,, z C, F,_A,D,F, | G,=B,E,G, _A,CF,A, | =B,,2 z F, E,/D,/E,/F,/ G,G,, | %53
 C,2 z G,, C,C/_B,/ _A,/G,/F,/=E,/ | F,2 z F,, B,,B,/_A,/ G,/F,/E,/D,/ | %55
 E,2 z E,, _A,,_A,/G,/ F,E, | B,_A,/G,/ F,G, A,A,A,A, | G,G,/F,/ G,E, _A,_A,,A,F, | %58
 G,E,_A,F, G,A,B,B,, | E,,2 z B,,, E,,E,/_D,/ C,/B,,/_A,,/G,,/ | %60
 _A,,2 z A,, D,,D,/C,/ B,,/A,,/G,,/F,,/ | G,,2 z G,, C,,C,/B,,/ _A,,/G,,/F,,/E,,/ | %62
 F,,F,/E,/ D,F, B,,B,,B,,B,, | B,,B,,B,,B,, B,,B,,B,,B,, | E,,E/D/ EB,/_A,/ B,G,/F,/ G,E,/D,/ | %65
 E,G,B,E B,(B,, B,,/)_A,,/G,,/F,,/ | =E,,_D,/C,/ D,/B,,/=E,/=D,/ E,/C,/G,/F,/ G,/E,/G,/B,/ | %67
 =E,G,CC, F,G,_A,F, | =B,,_A,/G,/ A,/F,/=B,/=A,/ B,/G,/D/C/ D/B,/D/F/ | =B,DG,G,, C,C,,E,,G,, | %70
 C,C/=B,/ CA,/G,/ A,F,/=E,/ F,F,, | B,,B,/A,/ B,G,/^F,/ G,E,/D,/ E,E,, | %72
 A,,A,/G,/ A,^F,/=E,/ F,D,/C,/ D,D,, | G,,G,/A,/ B,/C/B,/A,/ B,/A,/G,/^F,/ G,/D,/G,/A,/ | %74
 B,/A,/G,/A,/ B,/A,/B,/G,/ DD,/=E,/ ^F,D, | G,G,, z D,, G,,G,/=F,/ _E,/D,/C,/=B,,/ | %76
 C,2 z C,, F,,F,/E,/ D,/C,/B,,/A,,/ | B,,2 z B,, E,,E,/D,/ C,B,, | A,,A,/G,/ ^F,A, D,D,,D,,D,, | %79
 D,D,,D,,D,, D,D,,D,,D,, | G,,G,/A,/ B,G, CC,/D,/ E,A,, | %81
 B,,G,,C,A,, B,,/A,,/B,,/C,/ D,/C,/D,/A,,/ | =B,,D,G,G,, C,G,CC, | F,C,F,,F, B,,C,D,B,, | %84
 E,G,C,E, F,A,D,F, | G,B,E,G, A,,2 z E, | D,/C,/D,/E,/ F,F,, B,,2 x G,, | C,D,B,,C, F,,2 z F,, | %88
 B,,C,_A,,B,, E,,2 z E, | F,E,D,F, =B,,G,, z C,/_B,,/ | %90
 _A,,/G,,/F,,- F,,/A,,/G,,/F,,/ E,,G,,C,,C, | C,_B,,/A,,/ B,,B,- B,A,/G,/ ^F,D, | %92
 G,G,, z G,, C,=E,A,,C, | D,=F,B,,D, E,G,C,E, | ^F,,2 z/ C,/B,,/A,,/ B,,G,,D,D,, | %95
 G,,G/^F/ GD/C/ DB,/A,/ B,G,/^F,/ | G,B,DG A/G/^F/=E/ D/C/=B,/A,/ | =B,=B,,B,,B,, B,,B,,B,,B,, | %98
 =B,,B,,B,,B,, C,C,C,C | ^C^C,C,C, C,C,C,C, | ^C,C,C,C, D,>D =C/B,/A,/G,/ | %101
 ^F,^F,,/_E,/ F,,/E,/F,,/E,/ F,,/D,/F,,/D,/ F,,/D,/F,,/D,/ | %102
 ^F,,/C,/B,,/A,,/ G,,/F,,/=E,,/D,,/ G,,G,B,,D, | G,,B,,D,G, E,/F,/E,/D,/ C,/B,,/A,,/G,,/ | %104
 F,,A,,C,F, D,/E,/D,/C,/ B,,/_A,,/G,,/F,,/ | E,,G,,B,,E, C,C,C,C, | C,C,C,C, C,C,C,C, | %107
 C,C,/A,,/ B,,G,, C,C,,C,A,, | B,,G,,C,A,, B,,E,/C,/ D,D,, | E,,C,B,,A,, B,,D,B,,G,, | %110
 C,,C,D,D,, G,,3 |][M:6/4] B,,2 C,2 D,2 C,2 B,,4 | C,4 z8 | (F,,2 G,,2 A,,2 G,,2) F,,4 | %114
 B,,4 z4 z4 | (B,,2 A,,2 G,,2 A,,2) B,,4 | C,4 z4 z4 | (C,2 D,2 =E,2 D,2) C,- C,3 | F,4 z4 z4 | %119
 (B,,2 A,,2 B,,2 D,2) G,,2 G,2 | C,2 =E,2 F,2 _E,2 _D,2 C,2 | B,,4 C,4 C,,4 |1 %122
 F,,2 C,2 F,2 _E,2 D,2 C,2 :|2 F,,12 |: (F,2 G,2 A,2 G,2) F,4 | D4 z4 z4 | %126
 D,2 C,2 =B,,2 D,2 G,,2 B,,2 | C,4 z4 z4 | C,2 D,2 E,2 C,2 A,,2 G,,2 | %129
 A,,2 B,,2 C,2 A,,2 ^F,,2 D,,2 | G,,2 E,2 D,2 C,2 D,2 D,,2 | G,,2 D,2 (G,2 A,2) (!turn!A,2 B,2) | %132
 (=E,2 D,2) (E,2 F,2) (!turn!F,2 G,2) | C,2 B,,A,, (G,,2 A,,2) (!turn!A,,2 B,,2) | %134
 C,,2 B,,,2 C,,4 C,4 | F,,2 C,2 (F,2 E,2) (E,2 D,2) | D,2 C,2 B,,2 A,,2 B,,2 D,,2 | E,,4 z4 z4 | %138
 E,2 D,2 C,2 =B,,2 C,D, E,2 | E,2 A,,2 B,,2 F,,2 _G,,2 =E,,2 | F,,4 F,4 F,,4 |1 %141
 B,,2 A,,2 B,,2 C,2 D,2 E,2 :|2 !fermata!B,,12 |][M:6/8] G,2 z F,2 z | E,2 z C,D,D,, | G,,2 z z3 | %146
 z6 | z D,D, D,D,D, | G,,G,G, A,A,/B,/C/A,/ | B,/A,/G,/B,/A,/C/ B,/A,/G,/B,/F,/G,/ | %150
 =E,/G,/F,/A,/G,/B,/ A,/G,/F,/G,/_E,/F,/ | D,/F,/E,/G,/F,/_A,/ G,/F,/E,/F,/D,/E,/ | %152
 C,/(F,/E,/D,/C,/B,,/) A,,/(D,/C,/B,,/A,,/G,,/) | %153
 F,,/(B,,/A,,/G,,/F,,/E,,/) D,,/(G,,/F,,/E,,/D,,/C,,/) | B,,,G,D, E,C,F, | B,,D,F, B,A,G, | %156
 D2 A, B,G,C | F,F,,F,, F,,F,,F,, | B,,,B,,B,, C,C,/D,/E,/C,/ | %159
 D,/C,/B,,/D,/C,/E,/ D,/F,/E,/G,/F,/G,/ | A,,F,,B,, E,F,F,, | B,,B,,B,, B,,B,,B,, | %162
 B,,B,,B,, B,,B,,B,, | B,,B,,B,, B,,B,,B,, | B,,B,,B,, B,,B,,B,, | B,,B,,B,, B,,B,,B,, | %166
 (F,,F,,F,,) (F,,F,,F,,) | (F,,F,,F,,) (F,,F,,F,,) | (F,,F,,F,,) (F,,F,,F,,) | %169
 (F,,F,,F,,) (F,,F,,F,,) | F,,F,D, G,F,G, | C,C,A,, D,C,D, | G,,G,=E, A,G,A, | %173
 D,/^C,/D,/=E,/F,/D,/ G,/F,/G,/A,/B,/G,/ | A,A,,A,, A,,A,,A,, | D,,D,D, =E,/D,/E,/F,/G,/E,/ | %176
 F,/=E,/D,/F,/E,/G,/ F,/E,/D,/E,/F,/D,/ | G,/^F,/G,/B,/A,/C/ B,/A,/G,/A,/B,/G,/ | %178
 ^C>A,D- D/G,/A,A,, | D,A,F, D,DD, | G,D,=B,, G,,G,G,, | C,G,E, C,CC, | F,C,A,, F,,F,F,, | %183
 B,,F,D, B,,B,B,, | =E,E,E, E,E,E, | =E,,E,,E,, E,,E,,E,, | F,,A,,C, F,A,C | DA,^F, D,DD, | %188
 G,D,B,, G,,G,G,, | C,G,=E, C,CC, | F,C,A,, F,,F,F,, | (=B,,B,,B,,) (B,,B,,B,,) | %192
 =B,,,B,,,B,,, B,,,B,,,B,,, | C,, z z z3 | z/ C,,/F,,/A,,/G,,/B,,/ A,,/C,/F,,/G,,/A,,/F,,/ | %195
 B,,/A,,/B,,/D,/C,/_E,/ D,/F,/B,,/C,/D,/B,,/ | =E,>C,F,- F,/B,,/C,C,, | F,,A,,C, F,2 z | %198
 z3 D,=B,,G,, | C,,E,,G,, C,2 z | z3 A,,^F,,D,, | G,,B,,D, G,2 z | z3 =E,^C,A,, | %203
 D,/A,/D/F/=E/G/ F/E/D/E/C/D/ | =B,/G,/C/=E/D/F/ E/D/C/D/_B,/C/ | A,/F,/B,/D/C/E/ D/C/B,/C/A,/B,/ | %206
 G,/A,/B,/A,/G,/F,/ =E,/F,/G,/F,/E,/D,/ | ^C, z/ C,/D,/=E,/ F,/E,/F,/A,/G,/=B,/ | %208
 A,/G,/A,/=B,/A,/B,/ C/B,/C/_E/D/G,/ | ED^C D=C/A,/B,/A,/ | B,A,G, ^G,A,A,, | %211
 (D,/=E,/F,/G,/A,/F,/) D,/F,/A,/F,/D,/F,/ | D,/G,/B,/G,/D,/G,/ D,/G,/B,/G,/D,/G,/ | %213
 D,/G,/A,/G,/D,/G,/ D,/F,/A,/F,/D,/F,/ | D,/=E,/G,/E,/D,/E,/ ^C,/E,/A,/E,/C,/E,/ | %215
 =C,B,,_E, A,,D,D,, | (G,,/A,,/B,,/C,/D,/B,,/) G,,/B,,/D,/B,,/G,,/B,,/ | %217
 G,,/C,/E,/C,/G,,/C,/ G,,/C,/E,/C,/G,,/C,/ | G,,/C,/D,/C,/G,,/C,/ G,,/B,,/D,/B,,/G,,/B,,/ | %219
 G,,/A,,/C,/A,,/G,,/A,,/ ^F,,/A,,/D,/A,,/F,,/A,,/ | =F,,E,,_A,, D,,G,,G,,, | %221
 C,,/G,,/C,/E,/D,/F,/ E,/(G,/F,/E,/D,/C,/) | _A,/B,/A,/G,/F,/E,/ F,D,G, | C,E,G, CC,D, | %224
 E,ED CDD, | G,G,,G,, G,,G,,G,, | D,,D,D, =E,E,/^F,/G,/E,/ | %227
 ^F,/D,/G,/B,/A,/C/ B,/A,/G,/A,/=F,/G,/ | =E,/G,/F,/_A,/G,/B,/ A,/G,/F,/G,/_E,/F,/ | %229
 D,/F,/E,/G,/F,/_A,/ G,/A,/G,/F,/E,/D,/ | C,/F,/E,/D,/C,/B,,/ _A,,C/B,/_A,/G,/ | %231
 ^F,/B,/=A,/G,/F,/=E,/ D,/G,/F,/E,/D,/C,/ | (B,,B,,B,,) (C,C,C,) | (D,D,D,) (E,E,E,) | %234
 (B,,B,,B,,) (C,C,C,) | D,C,D, G,,G,^F, | E,ED CA,D | G,/D,/G,/B,/A,/C/ B,/A,/G,/A,/F,/G,/ | %238
 =E,/C,/F,/A,/G,/B,/ A,/G,/F,/G,/_E,/F,/ | D,/B,,/E,/G,/F,/_A,/ G,/F,/E,/F,/D,/E,/ | %240
 C,/D,/E,/D,/C,/B,,/ A,,/B,,/C,/B,,/A,,/G,,/ | ^F,, z/ F,,/G,,/A,,/ B,,/A,,/B,,/D,/C,/=E,/ | %242
 D,/^C,/D,/=E,/D,/E,/ F,/E,/F,/_A,/G,/=C,/ | _A,G,^F, G,=F,/D,/E,/D,/ | %244
 E,D,^C, D,=C,/A,,/B,,/A,,/ | B,,E,E,, D,,D,C, | (B,,B,,B,,) (C,C,C,) | (D,D,D,) (E,E,E,) | %248
 (B,,B,,B,,) (C,C,C,) | D,C,D, E,,2 z | =E,,2 z ^F,,^F,D, | G,C,D, G,,B,,D, | %252
 G,D,B,, G,,/B,,/D,/B,,/G,,/B,,/ | D,,/G,,/B,,/G,,/D,,/B,,,/ !fermata!G,,,3 |] %254
V:6
 x | x8 | x8 | x8 | x8 | x8 | x8 | x8 | x8 | x8 | x8 | x8 | x8 | x8 | x8 | x8 | x8 | x8 | x8 | x8 | %20
 x8 | x8 | x8 | x8 | x8 | x8 | x8 | x8 | x8 | x8 | x8 | x8 | x3 z2 x3 | x8 | x8 | x8 | x8 | x8 | %38
 x8 | x8 | x8 | x8 | x8 | x8 | x8 | x8 | x8 | x8 | x8 | x8 | x8 | x8 | x8 | x8 | x8 | x8 | x8 | %57
 x8 | x8 | x8 | x8 | x8 | x8 | x8 | x G/F/ GE EB,/_A,/ B,B, | B, x7 | x8 | x8 | x8 | x8 | x8 | x8 | %72
 x8 | x8 | x8 | x8 | x8 | x8 | x8 | x8 | x8 | x8 | x8 | x8 | x8 | x8 | x8 | x8 | x8 | x8 | x8 | %91
 x8 | x8 | x8 | x8 | x8 | x8 | x8 | x8 | x8 | x8 | x8 | x8 | x8 | x8 | x8 | x8 | x8 | x8 | x8 | %110
 x7 |][M:6/4] x12 | x12 | x12 | x12 | x12 | x12 | x12 | x12 | x12 | x12 | x12 |1 x12 :|2 x12 |: %124
 x12 | x12 | x12 | x12 | x12 | x12 | x12 | x12 | x12 | x12 | x12 | x12 | x12 | x12 | x12 | x12 | %140
 x12 |1 x12 :|2 x12 |][M:6/8] x6 | x6 | x6 | x6 | x6 | x6 | x6 | x6 | x6 | x6 | x6 | x6 | x6 | x6 | %157
 x6 | x6 | x6 | x6 | x6 | x6 | x6 | x6 | x6 | x6 | x6 | x6 | x6 | x6 | x6 | x6 | x6 | x6 | x6 | %176
 x6 | x6 | x6 | x6 | x6 | x6 | x6 | x6 | x6 | x6 | x6 | x6 | x6 | x6 | x6 | x6 | x6 | x6 | x6 | %195
 x6 | x6 | x6 | x6 | x6 | x6 | x6 | x6 | x6 | x6 | x6 | x6 | x6 | x6 | x6 | x6 | x6 | x6 | x6 | %214
 x6 | x6 | x6 | x6 | x6 | x6 | x6 | x6 | x6 | x6 | x6 | x6 | x6 | x6 | x6 | x6 | x6 | x6 | x6 | %233
 x6 | x6 | x6 | x6 | x6 | x6 | x6 | x6 | x6 | x6 | x6 | x6 | x6 | x6 | x6 | x6 | x6 | x6 | x6 | %252
 x6 | x6 |] %254

